X:1
T:Meeting in the Air
T:Daniel Brink Towner
T:Meeting in the Air
T:Public Domain
T:Public Domain
T:Public Domain
T:Public Domain
C:Daniel Brink Towner
Z:Public Domain
%%score 1 ( 2 3 )
L:1/8
M:4/4
K:Bb
V:1 treble 
V:2 bass 
V:3 bass 
V:1
 [B,D][CE] | [DF]>[DF] [DF][DF] [EG]<[DF] [FB][Fc] | [Fd]>[FB] [GB][EG] [DF]2 [DF][DF] | %3
w: 1.~How it|thrills our hearts with rap- ture As we|feel the hour is nigh, When the|
w: 2.~Oft the|wea- ry miles di- vide us From the|friends we cher- ish so, And the|
w: 3.~O the|hope of His ap- pear- ing— How it|lights the drear- y way, How it|
 [FB]>[FB] [FB][Fc] [Fd][FB][FB][FA] | [EG]>[Ec] [=Ec][Ed] [Fc]2 [B,D][C_E] | %5
w: voice of the arch- an- gel Shall re-|sound through- out the sky, And the|
w: look from eyes that love us— How we|miss wher- e’er we go! And some-|
w: girds our souls with cour- age For the|“lit- tle while” we stay! For it|
 [DF]>[DF] [DF][DF] [EG]<[DF] [FB][Fc] | [Fd]>[FB] [GB][EG] [DF]2 [DF][DF] | %7
w: dead in Christ, up- spring- ing, With the|liv- ing saints shall be Caught a-|
w: times the grave has hid- den One whose|face was ve- ry dear— O what|
w: can- not be much long- er Till the|Bride- groom calls us home; Sure- ly,|
 [EG]>[FA] [FB][Fc] [Fd][FB][GB][EG] | [DF]>[FB] [FB][Fc] [FB]2 ||"^Refrain" [B,D][CE] | %10
w: way from all earth’s sha- dows To a|glad e- ter- ni- ty!||
w: joy once more to meet them When the|Mas- ter shall ap- pear!|O the|
w: sure- ly He comes quick- ly! Ev- en|so, Lord Je- sus, come!||
 [DF]<[FB] [FB]>[Fc] [Fd]2 [Fc][FB] | [GB]<[Gc] [GB]>[EG] [DF]2 [B,D][CE] | %12
w: ||
w: meet- ing in the air! O the|meet- ing in the air, With the|
w: ||
 [DF]<[FB] [FB]>[Fc] [Fd]<[FB] [FB][FA] | [EG][Ec] [=Ec]>[Ed] [Fc]2 [B,D][C_E] | %14
w: ||
w: bless- èd King of glo- ry In our|brid- al gar- ments fair! O the|
w: ||
 [DF]<[FB] [FB]>[Fc] [Fd]2 [Fc][FB] | [GB]<[Gc] [GB]>[EG] [DF]2 [DF][DF] | %16
w: ||
w: meet- ing in the air! O the|meet- ing in the air, With the|
w: ||
 [EG]>[FA] [FB][Fc] [Fd][FB][GB][EG] | [DF]>[FB] [FB][Fc] [FB]2 |] %18
w: ||
w: loved ones and the lost ones Ev- er-|more u- nit- ed there!|
w: ||
V:2
 [B,,F,][B,,F,] | [B,,B,]>[B,,B,] [B,,B,][B,,B,] [B,,B,]<[B,,B,] [D,B,][E,A,] | %2
 B,>[D,B,] [E,B,][E,B,] [B,,B,]2 [B,,B,][B,,B,] | [B,,D]>[B,,D] [D,B,][F,A,] B,[B,D][D,B,][D,B,] | %4
 [E,B,]>[E,G,] [C,G,][C,B,] [F,A,]2 [B,,F,][B,,F,] | %5
 [B,,B,]>[B,,B,] [B,,B,][B,,B,] [B,,B,]<[B,,B,] [D,B,][F,A,] | %6
 B,>[D,B,] [E,B,][E,B,] [B,,B,]2 [B,,B,][B,,B,] | [E,B,]>[E,B,] [E,B,][F,A,] B,[D,B,][E,B,][E,B,] | %8
 [F,B,]>[F,D] [F,D][F,E] [B,,D]2 || [B,,F,][B,,F,] | %10
 [B,,B,]<[B,,D] [D,B,]>[F,A,] B,2 [D,B,][D,B,] | [E,E]<[E,E] [E,E]>[E,B,] [B,,B,]2 [B,,F,][B,,F,] | %12
 [B,,B,]<[B,,D] [D,B,]>[F,A,] B,<[B,D] [D,B,][D,B,] | %13
 [E,B,][E,G,] [C,G,]>[C,B,] [F,A,]2 [B,,F,][B,,F,] | %14
 [B,,B,]<[B,,D] [D,B,]>[F,A,] B,2 [D,B,][D,B,] | [E,E]<[E,E] [E,E]>[E,B,] [B,,B,]2 [B,,B,][B,,B,] | %16
 [E,B,]>[E,B,] [D,B,][F,A,] B,[D,B,][E,B,][E,B,] | [F,B,]>[F,D] [F,D][F,E] [B,,D]2 |] %18
V:3
 x2 | x8 | B,3/2 x13/2 | x4 B, x3 | x8 | x8 | B,3/2 x13/2 | x4 B, x3 | x6 || x2 | x4 B,2 x2 | x8 | %12
 x4 B,/ x7/2 | x8 | x4 B,2 x2 | x8 | x4 B, x3 | x6 |] %18

